Adwaita++-Light/panel/16/weather-severe-alert.svg

<svg height="16" width="16" xmlns="http://www.w3.org/2000/svg">
  <path d="m7 7v4 2h2v-2-4zm0 7v2h2v-2z" fill="#4285f4"/>
  <path d="m8 1c-2.07 0-3.83 1.27-4.59 3.06-1.93.29-3.41 1.93-3.41 3.94 0 2.21 1.79 4 4 4h2v-6h4v6h2.5c1.93 0 3.5-1.57 3.5-3.5 0-1.8-1.35-3.27-3.09-3.47-.46-2.29-2.48-4.03-4.91-4.03z" fill="#444"/>
</svg>

<svg xmlns="http://www.w3.org/2000/svg" width="16" height="16" version="1.1">
 <defs>
  <style id="current-color-scheme" type="text/css">
   .ColorScheme-Text { color:#444444; } .ColorScheme-Highlight { color:#4285f4; }
  </style>
 </defs>
 <path style="fill:currentColor" class="ColorScheme-Highlight" d="M 7,7 V 11 13 H 9 V 11 7 Z M 7,14 V 16 H 9 V 14 Z"/>
 <path style="fill:currentColor" class="ColorScheme-Text" d="M 8,1 C 5.93,1 4.17,2.27 3.41,4.06 1.48,4.35 0,5.99 0,8 0,10.21 1.79,12 4,12 H 6 V 6 H 10 V 12 H 12.5 C 14.43,12 16,10.43 16,8.5 16,6.7 14.65,5.23 12.91,5.03 12.45,2.74 10.43,1 8,1 Z"/>
</svg>
